X:472
T: "Zum Abschied"
N: Z1152
O: Europa, Mitteleuropa, Deutschland, Niederrhein
R: Liebes - Lied, Abschieds - Lied
M: 4/4
L: 1/8
K: Bb
F2B2 | d2d2c2dc | B2F2
d2e2 | f2f2e2fe | d2z2
g2g2 | g2z2f2f2 | f2z2
d3f | fedcB2dc | B2z2

